shared/images/iconfont/kb-iconfont-info-16.svg

<?xml version="1.0" encoding="UTF-8"?>
<svg width="16px" height="16px" viewBox="0 0 16 16" version="1.1" xmlns="http://www.w3.org/2000/svg" xmlns:xlink="http://www.w3.org/1999/xlink">
    <!-- Generator: sketchtool 49.3 (51167) - http://www.bohemiancoding.com/sketch -->
    <title>302DED72-79C0-4016-B080-8E8FD2C9F8F2</title>
    <desc>Created with sketchtool.</desc>
    <defs></defs>
    <g id="Colors,-icons" stroke="none" stroke-width="1" fill="none" fill-rule="evenodd">
        <g id="Icons-2" transform="translate(-370.000000, -249.000000)">
            <g id="kb-iconfont-info-16" transform="translate(370.000000, 249.000000)">
                <g id="kb-iconfont-info">
                    <rect id="icon-area" x="0" y="0" width="16" height="16"></rect>
                    <path d="M8,0 C12.418278,0 16,3.581722 16,8 C16,12.418278 12.418278,16 8,16 C3.581722,16 0,12.418278 0,8 C0,3.581722 3.581722,0 8,0 Z M8,14 C11.3136887,13.9999521 13.9999521,11.3136887 14,8 C14,4.6862915 11.3137085,2 8,2 C4.6862915,2 2,4.6862915 2,8 C2,11.3137085 4.6862915,14 8,14 Z" id="Combined-Shape" fill="#000000"></path>
                    <path d="M7.4019976,12.0637336 L7.25924432,12.0637336 C6.83992526,12.0637336 6.5,11.7238083 6.5,11.3044892 C6.5,11.2495285 6.50596775,11.1947303 6.51779831,11.141058 L7.2576044,7.78474492 C7.35863252,7.32640589 7.76482086,7 8.23416226,7 L8.38028667,7 C8.80097986,7 9.14201908,7.34103922 9.14201908,7.76173241 C9.14201908,7.81734139 9.13592967,7.87278317 9.12385974,7.92706647 L8.37815808,11.2807836 C8.27643697,11.7382639 7.87065037,12.0637336 7.4019976,12.0637336 Z M7.71090448,5.02050781 C7.71090448,4.68521968 7.80774595,4.43131597 8.00143182,4.25878906 C8.19511768,4.08626216 8.46611107,4 8.8144201,4 C9.11064554,4 9.33932164,4.05940696 9.50045526,4.17822266 C9.66158887,4.29703835 9.74215448,4.46712129 9.74215448,4.68847656 C9.74215448,5.01399902 9.64775438,5.26546135 9.45895135,5.44287109 C9.27014832,5.62028083 8.99834115,5.70898438 8.64352166,5.70898438 C8.02177376,5.70898438 7.71090448,5.47949448 7.71090448,5.02050781 Z" id="i" fill="#000000"></path>
                </g>
            </g>
        </g>
    </g>
</svg>

<svg xmlns="http://www.w3.org/2000/svg" width="16" height="16" viewBox="0 0 16 16">
    <g fill="none" fill-rule="evenodd">
        <path d="M0 0h16v16H0z"/>
        <path fill="#000" d="M8 0a8 8 0 1 1 0 16A8 8 0 0 1 8 0zm0 14A6 6 0 1 0 8 2a6 6 0 0 0 0 12z"/>
        <path fill="#000" d="M7.402 12.064h-.143a.76.76 0 0 1-.741-.923l.74-3.356A1 1 0 0 1 8.234 7h.146a.762.762 0 0 1 .744.927l-.746 3.354a1 1 0 0 1-.976.783zm.309-7.043c0-.336.097-.59.29-.762.194-.173.465-.259.813-.259.297 0 .525.06.686.178a.596.596 0 0 1 .242.51c0 .326-.094.577-.283.755-.189.177-.46.266-.815.266-.622 0-.933-.23-.933-.688z"/>
    </g>
</svg>
